X:137
M:2/4
L:1/8
K:G
|: (g/f/g/a) (g/f/g/a/) | gGFE | Dgfg | (a/g/f/e/) d2 | (g/f/g/a/) (g/f/g/a/) | gGFE | Dgdf | g2g2 :|

